!!!SOCIAL_FUNCTION:	songs of war
!!!PDT:	1918

Specific Region: Dakotas, Minnesota, Montana, Nebraska
!!!REG: Dakotas and Montana
!!!LING_GROUP: Siouan
!!!LANG: Tone
!!!OTL@ENG: Song of the Fox Society (b)
!!!ONM: No. 115
**kern
*Imale
*clefG2
*k[b-e-a-]
*M2/4
*MM84
4g
[4e-
=2
4e-]
4g
=3||
*M3/4
16a-
8.a-
16g
8.g
16e-
8.e-
=4||
*M2/4
16g
8.d
8c
8c
=5
8A-
8A-
4A-
=6
16c
8.c
16d
8.d
=7
16d
8.c
8A-
8A-
=8
2A-
=9
4.A-
8A-
=10||
*M3/4
4A-
2A-
=11||
*M2/4
4g
[4e-
=12
4e-]
4g
=13||
*M3/4
16a-
8.a-
16g
8.g
8e-
8e-
=14
16g
8.d
8c
8c
8A-
8A-
=15||
*M2/4
16c
8.c
16d
8.d
=16
16d
8.c
8A-
8A-
=17
2A-
=18
4.A-
8A-
=19
4A-
4A-
==
*-
!!!CNT: Native American -- Sioux
!!!MRD: 1911/07//-1914///
!!!OCL: Frances Densmore
!!!YOR1: Teton Sioux Music, Bulletin 61,
!!!YOR2: Bureau of American Ethnology, Smithsonian Institution
!!!PPR: Government Printing Office
!!!PPP: Washington, D.C.
!!!PDT: 1918///
!!!ENC: Craig Stuart Sapp
!!!END: 2002/03/25/
!!!EEV: 2002/03/31/
!!!AGN: War Song
!!!MPN@@SIO: Oku'te
!!!MPN@ENG: Shooter
!!!TXO: Teton Sioux
!!!MLC: Standing Rock Reservation, South Dakota, United States of America
!!!ARL: 45.9/-100.7#
!!!catalog: Catalogue No. 580
!!!PPG: 317
!!!EFL: 115/245
!!!VTS: 152071871
